assets/icons/house.svg

<svg xml:space="preserve" fill="#ebebeb" style="fill-rule:evenodd;clip-rule:evenodd;stroke-linejoin:round;stroke-miterlimit:2" viewBox="0 0 704 643" xmlns="http://www.w3.org/2000/svg"><path d="M5064 7926c-17-8-249-225-514-482-657-638-1144-1108-1655-1599-577-554-585-563-592-611-4-33-1-45 22-72 14-17 44-37 65-43 74-22 93-11 263 152l157 151V3988c0-1368 1-1435 18-1468 12-22 35-43 63-57l44-22h2185c2100-1 2187 0 2225 18 22 10 49 28 60 41 20 22 20 38 23 1467 1 843 6 1443 11 1441s71-61 147-132 156-137 177-146c50-23 92-12 130 32 22 26 27 42 27 84v52l-202 194c-111 106-303 289-425 407l-223 213v1274l-27 26c-16 15-41 32-56 37-18 7-152 11-368 11-471 0-442 18-449-277l-5-205-479 468c-263 258-488 474-500 481-28 16-83 16-122-1m608-812c299-291 586-570 638-620 52-49 255-243 450-430 195-188 372-356 393-373l37-33V2700H5940v986c0 1109 6 1025-76 1064-40 20-58 20-765 18-699-3-725-4-753-23-58-39-56 2-56-1065v-980H3050v2948l252 243c139 134 399 386 578 559 179 174 460 446 625 605 165 160 370 359 455 442 85 84 158 151 162 150s251-241 550-533m1158 106v-885l-107 106c-146 144-282 272-299 282-11 7-14 53-14 252v245zM5700 4520V2695l-580 3-580 2v1820z" style="fill:#fff;fill-rule:nonzero" transform="matrix(.1 0 0 -.1 -159 820)"/></svg>

<?xml version="1.0" encoding="UTF-8" standalone="no"?>
<!DOCTYPE svg PUBLIC "-//W3C//DTD SVG 1.1//EN" "http://www.w3.org/Graphics/SVG/1.1/DTD/svg11.dtd">
<svg width="100%" height="100%" viewBox="0 0 704 643" version="1.1" xmlns="http://www.w3.org/2000/svg" xmlns:xlink="http://www.w3.org/1999/xlink" xml:space="preserve" xmlns:serif="http://www.serif.com/" style="fill-rule:evenodd;clip-rule:evenodd;stroke-linejoin:round;stroke-miterlimit:2;">
    <g transform="matrix(1,0,0,1,-159,-204)">
        <g transform="matrix(0.1,0,0,-0.1,0,1024)">
            <path d="M5064,7926C5047,7918 4815,7701 4550,7444C3893,6806 3406,6336 2895,5845C2318,5291 2310,5282 2303,5234C2299,5201 2302,5189 2325,5162C2339,5145 2369,5125 2390,5119C2464,5097 2483,5108 2653,5271L2810,5422L2810,3988C2810,2620 2811,2553 2828,2520C2840,2498 2863,2477 2891,2463L2935,2441L5120,2441C7220,2440 7307,2441 7345,2459C7367,2469 7394,2487 7405,2500C7425,2522 7425,2538 7428,3967C7429,4810 7434,5410 7439,5408C7444,5406 7510,5347 7586,5276C7662,5205 7742,5139 7763,5130C7813,5107 7855,5118 7893,5162C7915,5188 7920,5204 7920,5246L7920,5298L7718,5492C7607,5598 7415,5781 7293,5899L7070,6112L7070,7386L7043,7412C7027,7427 7002,7444 6987,7449C6969,7456 6835,7460 6619,7460C6148,7460 6177,7478 6170,7183L6165,6978L5686,7446C5423,7704 5198,7920 5186,7927C5158,7943 5103,7943 5064,7926ZM5672,7114C5971,6823 6258,6544 6310,6494C6362,6445 6565,6251 6760,6064C6955,5876 7132,5708 7153,5691L7190,5658L7190,2700L5940,2700L5940,3686C5940,4795 5946,4711 5864,4750C5824,4770 5806,4770 5099,4768C4400,4765 4374,4764 4346,4745C4288,4706 4290,4747 4290,3680L4290,2700L3050,2700L3050,5648L3302,5891C3441,6025 3701,6277 3880,6450C4059,6624 4340,6896 4505,7055C4670,7215 4875,7414 4960,7497C5045,7581 5118,7648 5122,7647C5126,7646 5373,7406 5672,7114ZM6830,7220L6830,6335L6723,6441C6577,6585 6441,6713 6424,6723C6413,6730 6410,6776 6410,6975L6410,7220L6830,7220ZM5700,4520L5700,2695L5120,2698L4540,2700L4540,4520L5700,4520Z" style="fill:white;fill-rule:nonzero;"/>
        </g>
    </g>
</svg>
